SVG_Azure_Grouped/Workload/Active Directory Lightweight Directory Services.svg

<?xml version="1.0" encoding="UTF-8" standalone="no"?>
<!-- Generated by Microsoft Visio, SVG Export Active Directory Lightweight Directory Services.svg Page-1 -->

<svg
   xmlns:dc="http://purl.org/dc/elements/1.1/"
   xmlns:cc="http://creativecommons.org/ns#"
   xmlns:rdf="http://www.w3.org/1999/02/22-rdf-syntax-ns#"
   xmlns:svg="http://www.w3.org/2000/svg"
   xmlns="http://www.w3.org/2000/svg"
   xmlns:sodipodi="http://sodipodi.sourceforge.net/DTD/sodipodi-0.dtd"
   xmlns:inkscape="http://www.inkscape.org/namespaces/inkscape"
   width="0.62993056in"
   height="0.78748363in"
   viewBox="0 0 45.35481 56.698712"
   xml:space="preserve"
   class="st10"
   version="1.1"
   id="svg150"
   sodipodi:docname="Active Directory Lightweight Directory Services.svg"
   style="font-size:12px;overflow:visible;color-interpolation-filters:sRGB;fill:none;fill-rule:evenodd;stroke-linecap:square;stroke-miterlimit:3"
   inkscape:version="0.92.5 (2060ec1f9f, 2020-04-08)"><metadata
   id="metadata154"><rdf:RDF><cc:Work
       rdf:about=""><dc:format>image/svg+xml</dc:format><dc:type
         rdf:resource="http://purl.org/dc/dcmitype/StillImage" /></cc:Work></rdf:RDF></metadata><sodipodi:namedview
   pagecolor="#ffffff"
   bordercolor="#666666"
   borderopacity="1"
   objecttolerance="10"
   gridtolerance="10"
   guidetolerance="10"
   inkscape:pageopacity="0"
   inkscape:pageshadow="2"
   inkscape:window-width="640"
   inkscape:window-height="480"
   id="namedview152"
   showgrid="false"
   inkscape:zoom="1.4181983"
   inkscape:cx="28.929893"
   inkscape:cy="37.855143"
   inkscape:window-x="0"
   inkscape:window-y="0"
   inkscape:window-maximized="0"
   inkscape:current-layer="svg150" />
	<style
   type="text/css"
   id="style2">
	<![CDATA[
		.st1 {fill:url(#grad0-12);stroke:none;stroke-linecap:butt;stroke-width:35.9596}
		.st2 {fill:#003067;stroke:none;stroke-linecap:butt;stroke-width:35.9596}
		.st3 {fill:#50e6ff;stroke:none;stroke-linecap:butt;stroke-width:35.9596}
		.st4 {fill:#773adc;stroke:none;stroke-linecap:butt;stroke-width:33.9999}
		.st5 {fill:#f9f9f9;fill-opacity:0.5;stroke:none;stroke-linecap:butt;stroke-width:33.9999}
		.st6 {fill:url(#grad0-38);stroke:none;stroke-linecap:butt;stroke-width:33.9999}
		.st7 {fill:#e8e8e8;stroke:none;stroke-linecap:butt;stroke-width:33.9999}
		.st8 {fill:#50e6ff;stroke:none;stroke-linecap:butt;stroke-width:33.9999}
		.st9 {fill:#198ab3;stroke:none;stroke-linecap:butt;stroke-width:33.9999}
		.st10 {fill:none;fill-rule:evenodd;font-size:12px;overflow:visible;stroke-linecap:square;stroke-miterlimit:3}
	]]>
	</style>

	<defs
   id="Patterns_And_Gradients">
		<linearGradient
   id="grad0-12"
   x1="-0.00036566373"
   y1="54.611882"
   x2="39.663511"
   y2="54.611882"
   gradientTransform="scale(0.75535421,1.3238822)"
   gradientUnits="userSpaceOnUse">
			<stop
   offset="0"
   stop-color="#949494"
   stop-opacity="1"
   id="stop4" />
			<stop
   offset="0.53"
   stop-color="#a2a2a2"
   stop-opacity="1"
   id="stop6" />
			<stop
   offset="1"
   stop-color="#b3b3b3"
   stop-opacity="1"
   id="stop8" />
		</linearGradient>
		<linearGradient
   id="grad0-38"
   x1="0"
   y1="90.424927"
   x2="24.491427"
   y2="90.424927"
   gradientTransform="scale(0.92073034,1.0860943)"
   gradientUnits="userSpaceOnUse">
			<stop
   offset="0"
   stop-color="#005ba1"
   stop-opacity="1"
   id="stop11" />
			<stop
   offset="0.07"
   stop-color="#0060a9"
   stop-opacity="1"
   id="stop13" />
			<stop
   offset="0.36"
   stop-color="#0071c8"
   stop-opacity="1"
   id="stop15" />
			<stop
   offset="0.52"
   stop-color="#0078d4"
   stop-opacity="1"
   id="stop17" />
			<stop
   offset="0.64"
   stop-color="#0074cd"
   stop-opacity="1"
   id="stop19" />
			<stop
   offset="0.82"
   stop-color="#006abb"
   stop-opacity="1"
   id="stop21" />
			<stop
   offset="1"
   stop-color="#005ba1"
   stop-opacity="1"
   id="stop23" />
		</linearGradient>
	</defs>
	<g
   id="g148"
   transform="translate(-35.959751,-34.09559)">
		<title
   id="title27">Page-1</title>
		<g
   id="group16300-1"
   transform="translate(35.9599,-34.0157)">
			<title
   id="title29">Active Directory Lightweight Directory Services.16300</title>
			<g
   id="group16301-2">
				<title
   id="title31">Page-1</title>
				<g
   id="group16302-3">
					<title
   id="title33">Sheet.16302</title>
					<g
   id="group16303-4"
   transform="translate(0,-2.32771)">
						<title
   id="title35">Sheet.16303</title>
						<g
   id="group16304-5">
							<title
   id="title37">Sheet.16304</title>
							<g
   id="group16305-6">
								<title
   id="title39">Icon-databases-136.149</title>
								<g
   id="group16306-7">
									<title
   id="title41">path4-5</title>
									<g
   id="group16307-8">
										<title
   id="title43">Sheet.16307</title>
										<g
   id="shape16308-9">
											<title
   id="title45">Sheet.16308</title>
											<path
   d="m 29.96,123.02 a 1.8215,1.76972 90 0 1 -1.73,1.79 H 1.74 A 1.79009,1.73921 90 0 1 0,123.02 V 74.09 A 1.75868,1.70869 90 0 1 1.74,72.3 h 26.49 a 1.79009,1.73921 90 0 1 1.73,1.79 z"
   class="st1"
   id="path47"
   inkscape:connector-curvature="0"
   style="fill:url(#grad0-12);stroke:none;stroke-width:35.95959854;stroke-linecap:butt" />
										</g>
									</g>
								</g>
								<g
   id="group16309-13"
   transform="translate(4.39379,-30.7455)">
									<title
   id="title52">path6-7</title>
									<g
   id="group16310-14">
										<title
   id="title54">Sheet.16310</title>
										<g
   id="shape16311-15">
											<title
   id="title56">Sheet.16311</title>
											<path
   d="m 0,121.45 a 3.36034,3.26483 90 0 1 3.24,-3.33 h 14.94 a 3.36034,3.26483 90 0 1 3.36,3.33 3.36034,3.26483 90 0 1 -3.36,3.36 H 3.24 A 3.36034,3.26483 90 0 1 0,121.45 Z m 0,-9.92 a 3.36034,3.26483 90 0 1 3.24,-3.36 h 14.94 a 3.36034,3.26483 90 0 1 3.36,3.36 3.36034,3.26483 90 0 1 -3.36,3.33 H 3.24 A 3.36034,3.26483 90 0 1 0,111.53 Z"
   class="st2"
   id="path58"
   inkscape:connector-curvature="0"
   style="fill:#003067;stroke:none;stroke-width:35.95959854;stroke-linecap:butt" />
										</g>
									</g>
								</g>
								<g
   id="group16312-17"
   transform="translate(5.61428,-41.7635)">
									<title
   id="title63">circle8-5</title>
									<g
   id="group16313-18">
										<title
   id="title65">Sheet.16313</title>
										<g
   id="shape16314-19">
											<title
   id="title67">Sheet.16314</title>
											<ellipse
   cx="2.1968901"
   cy="122.545"
   rx="2.1968901"
   ry="2.2611699"
   class="st3"
   id="ellipse69"
   style="fill:#50e6ff;stroke:none;stroke-width:35.95959854;stroke-linecap:butt" />
										</g>
									</g>
								</g>
								<g
   id="group16315-21"
   transform="translate(5.61428,-31.8395)">
									<title
   id="title74">circle10-2</title>
									<g
   id="group16316-22">
										<title
   id="title76">Sheet.16316</title>
										<g
   id="shape16317-23">
											<title
   id="title78">Sheet.16317</title>
											<ellipse
   cx="2.1968901"
   cy="122.545"
   rx="2.1968901"
   ry="2.2611699"
   class="st3"
   id="ellipse80"
   style="fill:#50e6ff;stroke:none;stroke-width:35.95959854;stroke-linecap:butt" />
										</g>
									</g>
								</g>
							</g>
						</g>
						<g
   id="group16318-25"
   transform="translate(21.841,-32.851)">
							<title
   id="title87">Sheet.16318</title>
							<g
   id="group16319-26"
   transform="translate(0.0136334)">
								<title
   id="title89">Sheet.16319</title>
								<g
   id="shape16320-27">
									<title
   id="title91">Sheet.16320</title>
									<path
   d="M 11.75,103.29 0,119.96 l 11.75,4.85 11.75,-4.85 z"
   class="st4"
   id="path93"
   inkscape:connector-curvature="0"
   style="fill:#773adc;stroke:none;stroke-width:33.99990082;stroke-linecap:butt" />
								</g>
							</g>
							<g
   id="group16321-29">
								<title
   id="title97">Sheet.16321</title>
								<g
   id="shape16322-30">
									<title
   id="title99">Sheet.16322</title>
									<path
   d="M 11.75,103.29 0,119.96 l 11.75,4.85 z"
   class="st5"
   id="path101"
   inkscape:connector-curvature="0"
   style="fill:#f9f9f9;fill-opacity:0.5;stroke:none;stroke-width:33.99990082;stroke-linecap:butt" />
								</g>
							</g>
						</g>
					</g>
					<g
   id="group16323-32"
   transform="translate(18.8591)">
						<title
   id="title107">SQL Database</title>
						<g
   id="group16324-33">
							<title
   id="title109">Sheet.16324</title>
							<g
   id="group16325-34">
								<title
   id="title111">Sheet.16325</title>
								<g
   id="shape16326-35">
									<title
   id="title113">Sheet.16326</title>
									<path
   d="M 11.28,102.41 C 5.05,102.41 0,100.6 0,98.21 v 22.39 c 0,2.31 4.96,4.17 11.12,4.21 h 0.16 c 6.22,0 11.27,-1.81 11.27,-4.21 V 98.21 c 0,2.34 -5.05,4.2 -11.27,4.2 z"
   class="st6"
   id="path115"
   inkscape:connector-curvature="0"
   style="fill:url(#grad0-38);stroke:none;stroke-width:33.99990082;stroke-linecap:butt" />
								</g>
							</g>
							<g
   id="group16327-39"
   transform="translate(0,-22.3958)">
								<title
   id="title119">Sheet.16327</title>
								<g
   id="shape16328-40">
									<title
   id="title121">Sheet.16328</title>
									<path
   d="m 22.55,120.6 c 0,2.34 -5.05,4.21 -11.27,4.21 C 5.05,124.81 0,123 0,120.6 c 0,-2.39 5.05,-4.19 11.28,-4.19 6.22,0 11.27,1.8 11.27,4.19 z"
   class="st7"
   id="path123"
   inkscape:connector-curvature="0"
   style="fill:#e8e8e8;stroke:none;stroke-width:33.99990082;stroke-linecap:butt" />
								</g>
							</g>
							<g
   id="group16329-42"
   transform="translate(2.62141,-24.262)">
								<title
   id="title127">Sheet.16329</title>
								<g
   id="shape16330-43">
									<title
   id="title129">Sheet.16330</title>
									<path
   d="m 17.32,122.13 c 0,1.48 -3.89,2.68 -8.67,2.68 -4.76,0 -8.65,-1.2 -8.65,-2.68 0,-1.49 3.89,-2.67 8.65,-2.67 4.78,0 8.67,1.2 8.67,2.67 z"
   class="st8"
   id="path131"
   inkscape:connector-curvature="0"
   style="fill:#50e6ff;stroke:none;stroke-width:33.99990082;stroke-linecap:butt" />
								</g>
							</g>
							<g
   id="group16331-45"
   transform="translate(4.43353,-24.262)">
								<title
   id="title135">Sheet.16331</title>
								<g
   id="shape16332-46">
									<title
   id="title137">Sheet.16332</title>
									<path
   d="m 6.84,122.8 a 20.928,20.3203 -90 0 0 -6.84,1.03 20.6925,20.0916 -90 0 0 6.84,0.98 20.2032,19.6166 -90 0 0 6.85,-1.05 21.4535,20.8305 -90 0 0 -6.85,-0.96 z"
   class="st9"
   id="path139"
   inkscape:connector-curvature="0"
   style="fill:#198ab3;stroke:none;stroke-width:33.99990082;stroke-linecap:butt" />
								</g>
							</g>
						</g>
					</g>
				</g>
			</g>
		</g>
	</g>
</svg>

<?xml version="1.0" encoding="UTF-8" standalone="no"?>
<!DOCTYPE svg PUBLIC "-//W3C//DTD SVG 1.1//EN" "http://www.w3.org/Graphics/SVG/1.1/DTD/svg11.dtd">
<!-- Generated by Microsoft Visio, SVG Export Active Directory Lightweight Directory Services.svg Page-1 -->
<svg xmlns="http://www.w3.org/2000/svg" xmlns:xlink="http://www.w3.org/1999/xlink" xmlns:ev="http://www.w3.org/2001/xml-events"
		width="1.60159in" height="1.73342in" viewBox="0 0 115.314 124.806" xml:space="preserve" color-interpolation-filters="sRGB"
		class="st10">
	<style type="text/css">
	<![CDATA[
		.st1 {fill:url(#grad0-12);stroke:none;stroke-linecap:butt;stroke-width:35.9596}
		.st2 {fill:#003067;stroke:none;stroke-linecap:butt;stroke-width:35.9596}
		.st3 {fill:#50e6ff;stroke:none;stroke-linecap:butt;stroke-width:35.9596}
		.st4 {fill:#773adc;stroke:none;stroke-linecap:butt;stroke-width:33.9999}
		.st5 {fill:#f9f9f9;fill-opacity:0.5;stroke:none;stroke-linecap:butt;stroke-width:33.9999}
		.st6 {fill:url(#grad0-38);stroke:none;stroke-linecap:butt;stroke-width:33.9999}
		.st7 {fill:#e8e8e8;stroke:none;stroke-linecap:butt;stroke-width:33.9999}
		.st8 {fill:#50e6ff;stroke:none;stroke-linecap:butt;stroke-width:33.9999}
		.st9 {fill:#198ab3;stroke:none;stroke-linecap:butt;stroke-width:33.9999}
		.st10 {fill:none;fill-rule:evenodd;font-size:12px;overflow:visible;stroke-linecap:square;stroke-miterlimit:3}
	]]>
	</style>

	<defs id="Patterns_And_Gradients">
		<linearGradient id="grad0-12" x1="0" y1="0" x2="1" y2="0" gradientTransform="rotate(-90 0.5 0.5)">
			<stop offset="0" stop-color="#949494" stop-opacity="1"/>
			<stop offset="0.53" stop-color="#a2a2a2" stop-opacity="1"/>
			<stop offset="1" stop-color="#b3b3b3" stop-opacity="1"/>
		</linearGradient>
		<linearGradient id="grad0-38" x1="0" y1="0" x2="1" y2="0" gradientTransform="rotate(0 0.5 0.5)">
			<stop offset="0" stop-color="#005ba1" stop-opacity="1"/>
			<stop offset="0.07" stop-color="#0060a9" stop-opacity="1"/>
			<stop offset="0.36" stop-color="#0071c8" stop-opacity="1"/>
			<stop offset="0.52" stop-color="#0078d4" stop-opacity="1"/>
			<stop offset="0.64" stop-color="#0074cd" stop-opacity="1"/>
			<stop offset="0.82" stop-color="#006abb" stop-opacity="1"/>
			<stop offset="1" stop-color="#005ba1" stop-opacity="1"/>
		</linearGradient>
	</defs>
	<g>
		<title>Page-1</title>
		<g id="group15917-1" transform="translate(35.9599,-34.0157)">
			<title>Active Directory Lightweight Directory Services.15917</title>
			<g id="group15918-2">
				<title>Page-1</title>
				<g id="group15919-3">
					<title>Sheet.15919</title>
					<g id="group15920-4" transform="translate(0,-2.32771)">
						<title>Sheet.15920</title>
						<g id="group15921-5">
							<title>Sheet.15921</title>
							<g id="group15922-6">
								<title>Icon-databases-136.149</title>
								<g id="group15923-7">
									<title>path4-5</title>
									<g id="group15924-8">
										<title>Sheet.15924</title>
										<g id="shape15925-9">
											<title>Sheet.15925</title>
											<path d="M29.96 123.02 A1.8215 1.76972 90 0 1 28.23 124.81 L1.74 124.81 A1.79009 1.73921
														 90 0 1 0 123.02 L0 74.09 A1.75868 1.70869 90 0 1 1.74 72.3 L28.23 72.3 A1.79009
														 1.73921 90 0 1 29.96 74.09 L29.96 123.02 Z" class="st1"/>
										</g>
									</g>
								</g>
								<g id="group15926-13" transform="translate(4.39379,-30.7455)">
									<title>path6-7</title>
									<g id="group15927-14">
										<title>Sheet.15927</title>
										<g id="shape15928-15">
											<title>Sheet.15928</title>
											<path d="M0 121.45 A3.36034 3.26483 90 0 1 3.24 118.12 L18.18 118.12 A3.36034 3.26483
														 90 0 1 21.54 121.45 A3.36034 3.26483 90 0 1 18.18 124.81 L3.24 124.81 A3.36034
														 3.26483 90 0 1 0 121.45 ZM-0 111.53 A3.36034 3.26483 90 0 1 3.24 108.17
														 L18.18 108.17 A3.36034 3.26483 90 0 1 21.54 111.53 A3.36034 3.26483 90 0
														 1 18.18 114.86 L3.24 114.86 A3.36034 3.26483 90 0 1 -0 111.53 Z"
													class="st2"/>
										</g>
									</g>
								</g>
								<g id="group15929-17" transform="translate(5.61428,-41.7635)">
									<title>circle8-5</title>
									<g id="group15930-18">
										<title>Sheet.15930</title>
										<g id="shape15931-19">
											<title>Sheet.15931</title>
											<ellipse cx="2.19689" cy="122.545" rx="2.19689" ry="2.26117" class="st3"/>
										</g>
									</g>
								</g>
								<g id="group15932-21" transform="translate(5.61428,-31.8395)">
									<title>circle10-2</title>
									<g id="group15933-22">
										<title>Sheet.15933</title>
										<g id="shape15934-23">
											<title>Sheet.15934</title>
											<ellipse cx="2.19689" cy="122.545" rx="2.19689" ry="2.26117" class="st3"/>
										</g>
									</g>
								</g>
							</g>
						</g>
						<g id="group15935-25" transform="translate(21.841,-32.851)">
							<title>Sheet.15935</title>
							<g id="group15936-26" transform="translate(0.0136334,0)">
								<title>Sheet.15936</title>
								<g id="shape15937-27">
									<title>Sheet.15937</title>
									<path d="M11.75 103.29 L0 119.96 L11.75 124.81 L23.5 119.96 L11.75 103.29 Z" class="st4"/>
								</g>
							</g>
							<g id="group15938-29">
								<title>Sheet.15938</title>
								<g id="shape15939-30">
									<title>Sheet.15939</title>
									<path d="M11.75 103.29 L0 119.96 L11.75 124.81 L11.75 103.29 Z" class="st5"/>
								</g>
							</g>
						</g>
					</g>
					<g id="group15940-32" transform="translate(18.8591,-2.84217E-13)">
						<title>SQL Database</title>
						<g id="group15941-33">
							<title>Sheet.15941</title>
							<g id="group15942-34">
								<title>Sheet.15942</title>
								<g id="shape15943-35">
									<title>Sheet.15943</title>
									<path d="M11.28 102.41 C5.05 102.41 0 100.6 0 98.21 L0 120.6 C0 122.91 4.96 124.77 11.12 124.81
												 L11.28 124.81 C17.5 124.81 22.55 123 22.55 120.6 L22.55 98.21 C22.55 100.55 17.5
												 102.41 11.28 102.41 Z" class="st6"/>
								</g>
							</g>
							<g id="group15944-39" transform="translate(0,-22.3958)">
								<title>Sheet.15944</title>
								<g id="shape15945-40">
									<title>Sheet.15945</title>
									<path d="M22.55 120.6 C22.55 122.94 17.5 124.81 11.28 124.81 C5.05 124.81 0 123 0 120.6 C0 118.21
												 5.05 116.41 11.28 116.41 C17.5 116.41 22.55 118.21 22.55 120.6 Z" class="st7"/>
								</g>
							</g>
							<g id="group15946-42" transform="translate(2.62141,-24.262)">
								<title>Sheet.15946</title>
								<g id="shape15947-43">
									<title>Sheet.15947</title>
									<path d="M17.32 122.13 C17.32 123.61 13.43 124.81 8.65 124.81 C3.89 124.81 0 123.61 0 122.13
												 C0 120.64 3.89 119.46 8.65 119.46 C13.43 119.46 17.32 120.66 17.32 122.13 Z"
											class="st8"/>
								</g>
							</g>
							<g id="group15948-45" transform="translate(4.43353,-24.262)">
								<title>Sheet.15948</title>
								<g id="shape15949-46">
									<title>Sheet.15949</title>
									<path d="M6.84 122.8 A20.928 20.3203 -90 0 0 0 123.83 A20.6925 20.0916 -90 0 0 6.84 124.81 A20.2032
												 19.6166 -90 0 0 13.69 123.76 A21.4535 20.8305 -90 0 0 6.84 122.8 Z" class="st9"/>
								</g>
							</g>
						</g>
					</g>
				</g>
			</g>
		</g>
	</g>
</svg>
